src/actions/24/view-sort-ascending-name.svg

<svg xmlns="http://www.w3.org/2000/svg" viewBox="0 0 24 24">
  <defs id="defs3051">
    <style type="text/css" id="current-color-scheme">
      .ColorScheme-Text {
        color:#363636;
      }
      </style>
  </defs>
 <path style="fill:currentColor;fill-opacity:1;stroke:none" 
     d="M 8.0957031 4 C 7.3124631 4.0182 6.7105975 4.1551087 6.2734375 4.3554688 L 6.5195312 5.2558594 C 6.7290012 5.1829594 7.5218511 4.9296875 7.9863281 4.9296875 L 8.0488281 4.9296875 C 8.6954581 4.9569875 8.7421875 5.1924969 8.7421875 5.7480469 L 8.7421875 5.9667969 L 8.4042969 6.0214844 C 6.8378069 6.2491749 6 6.4403881 6 7.6425781 C 6 8.4804681 6.6107106 9 7.4941406 9 C 8.1043406 9 8.5042305 8.7445175 8.9140625 8.3984375 L 9.0410156 8.9082031 L 10.007812 8.9082031 L 10.007812 5.5390625 C 10.007812 4.5099225 9.296026 4 8.203125 4 L 8.0957031 4 z M 8.7421875 6.6777344 L 8.7421875 7.796875 C 8.4052175 8.024565 8.1500506 8.1894531 7.7128906 8.1894531 C 7.3212706 8.1894531 7.1289062 7.9437363 7.1289062 7.5976562 C 7.1289062 6.9419163 7.7030169 6.8326019 8.4042969 6.7324219 L 8.7421875 6.6777344 z M 14.5 9.7929688 L 14.292969 10 L 11 13.292969 L 11.707031 14 L 14 11.707031 L 14 20 L 15 20 L 15 11.707031 L 17.292969 14 L 18 13.292969 L 14.707031 10 L 14.5 9.7929688 z M 6.1113281 10.199219 L 6.1113281 11.013672 L 8.1835938 11.013672 L 6 14.269531 L 6 15 L 9.828125 15 L 9.828125 14.148438 L 7.5820312 14.148438 L 9.7558594 10.857422 L 9.7558594 10.199219 L 6.1113281 10.199219 z "
     class="ColorScheme-Text"
     />
</svg>

<svg xmlns="http://www.w3.org/2000/svg" viewBox="0 0 24 24">
    <path d="M8.096 4c-.784.018-1.385.155-1.823.355l.247.9c.209-.072 1.002-.325 1.466-.325h.063c.646.027.693.262.693.818v.219l-.338.054C6.838 6.25 6 6.441 6 7.643 6 8.48 6.61 9 7.494 9c.61 0 1.01-.255 1.42-.602l.127.51h.967V5.54C10.008 4.51 9.296 4 8.203 4h-.107zm.646 2.678v1.119c-.337.228-.592.392-1.03.392-.39 0-.583-.245-.583-.591 0-.656.574-.765 1.275-.866l.338-.054zM14.5 9.793l-.207.207L11 13.293l.707.707L14 11.707V20h1v-8.293L17.293 14l.707-.707L14.707 10l-.207-.207zm-8.389.406v.815h2.073L6 14.27V15h3.828v-.852H7.582l2.174-3.29v-.659H6.11z" style="fill:currentColor;fill-opacity:1;stroke:none;color:#050505;opacity:.7"/>
</svg>
